X: 010342
T: Aggie Whyte's
S: Mike/Mary Rafferty
Z: B.Black
R: reel
M: 4/4
L: 1/8
K: D
fage d2 Bd | ADFD EFGB | AGAB =cA (3B^cd |\
eA (3Bcd efge :|
f2 df afdf | f2 df efge | f2 df afdf |\
eA (3Bcd efge :|
